actions/symbolic/format-text-remove-formatting-symbolic.svg

<?xml version="1.0" encoding="UTF-8" standalone="no"?>
<svg
   xmlns:dc="http://purl.org/dc/elements/1.1/"
   xmlns:cc="http://creativecommons.org/ns#"
   xmlns:rdf="http://www.w3.org/1999/02/22-rdf-syntax-ns#"
   xmlns:svg="http://www.w3.org/2000/svg"
   xmlns="http://www.w3.org/2000/svg"
   xmlns:sodipodi="http://sodipodi.sourceforge.net/DTD/sodipodi-0.dtd"
   xmlns:inkscape="http://www.inkscape.org/namespaces/inkscape"
   viewBox="0 0 16 16"
   id="svg3429"
   version="1.1"
   inkscape:version="0.91 r13725"
   sodipodi:docname="format-text-remove-formatting-symbolic.svg">
  <metadata
     id="metadata3437">
    <rdf:RDF>
      <cc:Work
         rdf:about="">
        <dc:format>image/svg+xml</dc:format>
        <dc:type
           rdf:resource="http://purl.org/dc/dcmitype/StillImage" />
      </cc:Work>
    </rdf:RDF>
  </metadata>
  <sodipodi:namedview
     pagecolor="#ffffff"
     bordercolor="#666666"
     borderopacity="1"
     objecttolerance="10"
     gridtolerance="10"
     guidetolerance="10"
     inkscape:pageopacity="0"
     inkscape:pageshadow="2"
     inkscape:window-width="640"
     inkscape:window-height="480"
     id="namedview3435"
     showgrid="false"
     inkscape:zoom="41.1875"
     inkscape:cx="3.6783005"
     inkscape:cy="8"
     inkscape:current-layer="svg3429" />
  <defs
     id="defs3051">
    <style
       type="text/css"
       id="current-color-scheme">
      .ColorScheme-Text {
        color:#bebebe;
      }
      </style>
  </defs>
  <path
     style="color:#bebebe;fill:currentColor;fill-opacity:1;stroke:none"
     class="ColorScheme-Text"
     d="M 3.1946903,2 2,3.1946903 5.9872788,7.181969 C 5.3377869,7.2570791 4.7660273,7.5452646 4.3893805,7.9734513 3.9523681,8.4702641 3.7467837,9.086907 3.7522124,9.699115 c 0.0051,0.612208 0.2284715,1.234161 0.6637168,1.725664 0.4352453,0.491503 1.1133196,0.823009 1.8849558,0.823009 l 4.247788,0 0.504424,0 L 12.80531,14 14,12.80531 3.1946903,2 Z m 3.4513274,1.7522124 1.699115,1.699115 1.3539823,0 c 0.363747,0 0.849558,0.5217473 0.849558,0.8495576 l 0,0.8495575 -0.504425,0 2.20354,2.2035395 0,-3.053097 C 12.247864,4.9124191 11.126542,3.7522124 9.699115,3.7522124 l -3.0530973,0 z m -0.3451327,5.0973451 1.3539823,0 1.699115,1.6991155 -3.0530973,0 c -0.3380135,0 -0.4816227,-0.09327 -0.6106195,-0.238938 C 5.5612687,10.164069 5.4534343,9.936464 5.4513274,9.699115 5.4496274,9.461766 5.5402504,9.228851 5.6637168,9.088496 5.787183,8.94814 5.9420658,8.8495575 6.300885,8.8495575 Z"
     id="path3433"
     inkscape:connector-curvature="0" />
</svg>

<svg xmlns="http://www.w3.org/2000/svg" viewBox="0 0 16 16">
  <path fill="#bebebe" d="M3.195 2L2 3.195l3.987 3.987c-.65.075-1.221.363-1.598.791A2.563 2.563 0 0 0 3.752 9.7c.005.612.229 1.234.664 1.726a2.516 2.516 0 0 0 1.885.823h4.752L12.805 14 14 12.805zm3.451 1.752l1.7 1.7h1.353c.364 0 .85.521.85.849v.85h-.505l2.204 2.203V6.301a2.548 2.548 0 0 0-2.549-2.549zM6.301 8.85h1.354l1.699 1.699H6.301c-.338 0-.482-.094-.61-.24a.972.972 0 0 1-.24-.61.953.953 0 0 1 .213-.61c.123-.14.278-.24.637-.24z"/>
</svg>
